X:32
T:Pantheon, The
M:2/4
L:1/8
B:Thompson's Compleat Collection of 200 Favourite Country Dances, vol. 3 (London, 1773)
Z:Transcribed and edited by Flynn Titford-Mock, 2007
Z:abc's:AK/Fiddler's Companion
K:A
c e2 d/c/ | B d2 c/B/ | A c2 B/A/ | BE E2 | c e2 d/c/ | B d2 B/d/ | cA {c}BA/G/ | A4 :|
|: E A2 c | BdcA | G A2 B | cB B2 | caBg | e>fed | cA {c}BA/G/ | A4 :|

